X: 1
T: Johnnie's Waltz
C: Debbie Scott
O: Shetland
N: Handed out by Janet Baker at Concord Slow Scottish session 2016-9-30
R: waltz
Z: 2016 John Chambers <jc:trillian.mit.edu>
M: 3/4
L: 1/8
K: G
uD GA |\
"G"B2 u(Bc) BA | "Bm"B d3 BA | "Em"G2 u(g2 f2) | "C"e3 e dc |\
"G"B2 u(BA) Bc | "Bm"B d3 BG | "Am"E2 u(c2 B2) | "D"A3 D GA |
"Em"B2 u(Bc) BA | "Bm"B d3 BA | "Em"G2 u(g2 f2) | "C(Am7)"g3 g fe |\
"G"d2 (g2 B2) | "Am7(D)"A3 B AG | v("Am"cD) u(BD) "D"AD | "G"G3 :|
|: ud ef |\
"Em"g2 (gf) ga | "C"g2 (f2 e2) | "G"d2 (g2 B2) | "D"d3 D GA |\
"G"B2 u(BA) Bc | "Bm"B d3 BG | "Am7"A2 u(c2 e2) | "D"d3 d ef |
"Em"g2 (gf) ga | "C"g2 (f2 e2) | "G"d2 g2 BG | "C"E3 D GA |\
"G"B3 d BG | "Am7"A3 B AG | v("Am"cD) u(BD) "D"AD | "G"G3 :|
%%text Repeats are optional.
